X: 32
T:Junior Crehan's (2)
M:4/4
L:1/8
S:Doug Patience, Scarriff (fiddle)
R:Hornpipe
C:Junior Crehan
Z:Bernie Stocks
K:G
BE{G}ED E2DE | GABG A2GA | BE{G}ED E2DE | GABG A2GA | BE{G}ED E2DE | 
GABG A2GA | BAGE GEDE | G2GF G3A :: BA(3Bcd e3f | {a}fedf edBA | BA(3Bcd e3f | 
{a}fedf e3f | eB~B2 dB~B2 | BAGB A2GA | BAGE GEDE | G2GF G3A :| 
<end>
<start>
